X:194
T: Zu Mantua in Banden (3-35), S. 89f
N: K1169
O: Luxemburg
S: KINTZELE, Guillaume: An der Ucht, Bd. 3 Luxemburg 1928]
N: in der Quelle mit einer 2. Stimme versehen
R: historisches Lied]
M: 4/4
L: 1/8
K: G
D2 | G3FG2A2 | G2F2E2
D2 | G3FG2A2 | D4z2
D2 | A3_A=A2B2 | c3BA2
G2 | F2D2B3A | G4z2
B,2 | E3GF2E2 | _E2B2B,3
B | c3BA2G2 | F2E2B3
D | B3Bc3B | A4E2
E2 | D3GB3A | G4z2
D2 | B3Bc3B | A2e2c2

@@@ Tune index: 8248
